X: 11
T: Black Jack
K:F
M:6/8
d| c2 A F>GA| B2 G G2 B| c>dc A>GF| c3 A2 d|  c2 A F>GA| B2 G G2 B| c>dc A>GF| c3 A2 :|
|: A|d2 e f>ed| c>BA G2 d| c>dc A>GF| c3 A2 A| d2 e f>ed| c>BA G2 d| c>dc A>GF| c3 A2 A3:|

